X:1
T:Title
%%score 1 { 2 | 3 }
L:1/8
Q:1/4=108
M:4/4
K:F
V:1 treble nm="Grand Piano, Staff"
V:2 bass nm="Choir Pad, St. Mary, CM"
V:3 bass 
V:1
 [A,D]2 [DF]2 [^CE]2 D2 | [Fd]2 [Fc]2 [DB]2 [DA]2 | [CA]2 [Cc]2 F2 [FA]2 | [EG]2 F6 | %4
w: By~Arranged~from~Prys�~Welsh~Psalter,~1621 * * *||||
 [FA]2 [Gc]2 [Fd]2 [Ee]2 | [FA]2 [CG]2 [DF]2 [Ec]2 | [EG]2 [FA]2 D2 [DF]2 | [^CE]2 D6- | %8
w: ||||
 D2 z2 z4 |] %9
w: |
V:2
 F,2 A,2 A,2 F,2 | B,2 A,2 G,2 ^F,2 | F,2 G,2 A,2[K:treble] C2 | B,C A,6 | C2 C2 =B,2 C2 | %5
 C2 C2 A,=B, C2 | C2 C2[K:bass] B,2 A,2 | G,A, F,6- | F,2 z2 z4 |] %9
V:3
 D,2 D,2 A,,2 B,,2 | B,,2 F,2 z2 D,2 | z2 E,2 D,2 A,,B,, | C,2 F,,6 | F,2 E,2 D,2 C,2 | %5
 F,2 E,2 D,2 C,2 | C,2 F,,2 G,,2 A,,2 | A,,2 D,6- | D,2 z2 z4 |] %9

